common/resources/fonts/svg/waiting.svg

<?xml version="1.0" encoding="UTF-8" standalone="no"?>
<svg width="1024px" height="1024px" viewBox="0 0 1024 1024" version="1.1" xmlns="http://www.w3.org/2000/svg" xmlns:xlink="http://www.w3.org/1999/xlink">
    <!-- Generator: Sketch 3.7.1 (28215) - http://www.bohemiancoding.com/sketch -->
    <title>waiting</title>
    <desc>Created with Sketch.</desc>
    <defs></defs>
    <g id="Page-1" stroke="none" stroke-width="1" fill="none" fill-rule="evenodd">
        <g id="waiting" fill="#000000">
            <path d="M167,397 C230.729167,397 282,448.270833 282,512 C282,575.729167 230.729167,627 167,627 C103.270833,627 52,575.729167 52,512 C52,448.270833 103.270833,397 167,397 L167,397 Z M512,397 C575.729167,397 627,448.270833 627,512 C627,575.729167 575.729167,627 512,627 C448.270833,627 397,575.729167 397,512 C397,448.270833 448.270833,397 512,397 L512,397 Z M857,397 C920.729167,397 972,448.270833 972,512 C972,575.729167 920.729167,627 857,627 C793.270833,627 742,575.729167 742,512 C742,448.270833 793.270833,397 857,397 L857,397 Z" id="Shape"></path>
        </g>
    </g>
</svg>

<svg width="1024" height="1024" viewBox="0 0 1024 1024">
    <path d="M167 397c63.73 0 115 51.27 115 115s-51.27 115-115 115S52 575.73 52 512s51.27-115 115-115zm345 0c63.73 0 115 51.27 115 115s-51.27 115-115 115-115-51.27-115-115 51.27-115 115-115zm345 0c63.73 0 115 51.27 115 115s-51.27 115-115 115-115-51.27-115-115 51.27-115 115-115z" fill-rule="evenodd"/>
</svg>
